X:1
T:Raksirang, 77.77
T:Raksirang, 77.77
T:Anonymous, 1920 
T:Public Domain Courtesy of the Cyber Hymnal™
C:Anonymous, 1920
Z:Public Domain
Z:Courtesy of the Cyber Hymnal™
%%score ( 1 2 ) ( 3 4 )
L:1/8
Q:1/4=103
M:6/8
K:G
V:1 treble 
V:2 treble 
V:3 bass 
V:4 bass 
V:1
 [GB]2 [GB] (BA)G | (dc)[GB] [FA]3 | G2 [FA] [GB]2 [Ge] | [Fd]2 [E^c] [Fd]3 | [GB]2 [GB] (BA)G | %5
 (dc)[GB] [FA]3 | G2 [Ge] [Gd]2 G | [GB]2 [FA] G3 |] %8
V:2
 x3 G2 G | A2 x4 | G2 x4 | x6 | x3 G2 x | A2 x4 | G2 x G x2 | x3 G3 |] %8
V:3
 [G,D]2 [G,D] (DC)[G,B,] | [F,D]2 [G,D] [D,D]3 | [G,B,]2 [D,D] [G,D]2 [G,B,] | %3
 A,2 [A,,A,] [D,A,]3 | [G,D]2 [G,D] (DC)[G,B,] | [F,D]2 [G,D] D3 | [B,,D]2 [C,C] [D,B,]2 [E,B,] | %7
 [D,D]2 [D,C] [G,B,]3 |] %8
V:4
 x3 G,2 x | x6 | x6 | A,2 x4 | x3 G,2 x | x3 (D,2 C,) | x6 | x6 |] %8

